X: 4236
T: HUGGERTH THE PUSS
%R: jig
B: James Kerr "Merry Melodies" v.4 p.26 #236
Z: 2016 John Chambers <jc:trillian.mit.edu>
M: 6/8
L: 1/8
K: F
d |\
cAG GDG | cAG (G2A) | cAG GDG | cAF (F2d) |\
cAG GDG | GDG GDG | FGA fed | cAF F2 :: (3(A/B/c/) |\
d2A d2A | cAG (G2A) |
d2e fed | cAF F2 (3(A/B/c/ |\
d2)A d2A | cAF G2A | FGA fed | cAF F2 :: e |\
g2e f2d | cAG G2e | g2e f2d | cAF F2e |\
g2e f2d |
gag f2d | gfe fed | cAG (G2A) |\
BBB BdB | AAA AcA | GGG GFG | cAG G2A |\
BBB BdB | AAA AcA | FGA fed | cAF F2 :|

%%sep 1 1 500
%%sep 1 1 500

